X:1
T:Title
L:1/4
M:4/4
I:linebreak $
K:D
V:1 treble nm="Voice"
V:1
"A" A3/2 B/ c d | e a a f |"G" g e c d |"A" e/f/e/d/"D" c A |"A" A3/2 B/ c d | e a a f | %6
"G" g e"Em" c d |1"A" e2"D" d A :|2"A" e d"D" d f ||"G" g3 e |"D" f3 d |"A" e A f A | %12
 e/f/e/d/ c A |"G" g a g e |"D" f g f d |"Em" e d c e |"A" a3 f |"G" g A A g |"D" f A A f | %19
"A" e A f A | e/f/e/d/ c A |"A" A3/2 B/ c d | e a a f |"G" g e"Em" c d |"A" e2"D" d2 |] %25
